svg/crossplane.svg

<?xml version="1.0" encoding="UTF-8"?>
<svg xmlns="http://www.w3.org/2000/svg" xmlns:xlink="http://www.w3.org/1999/xlink" width="32" height="32" viewBox="0 0 32 32">
<defs>
<clipPath id="clip-0">
<path clip-rule="nonzero" d="M 14.25 11 L 17.625 11 L 17.625 30 L 14.25 30 Z M 14.25 11 "/>
</clipPath>
<clipPath id="clip-1">
<path clip-rule="nonzero" d="M 15.917969 11.015625 C 15 11.015625 14.257812 11.757812 14.257812 12.675781 L 14.257812 28.324219 C 14.257812 29.242188 15.003906 29.984375 15.917969 29.984375 C 16.835938 29.984375 17.582031 29.242188 17.582031 28.324219 L 17.582031 12.675781 C 17.582031 11.757812 16.835938 11.015625 15.917969 11.015625 "/>
</clipPath>
<clipPath id="clip-2">
<path clip-rule="nonzero" d="M 5.25 3.625 L 26.609375 3.625 L 26.609375 25 L 5.25 25 Z M 5.25 3.625 "/>
</clipPath>
<clipPath id="clip-3">
<path clip-rule="nonzero" d="M 5.269531 20.113281 L 21.71875 3.660156 L 26.636719 8.578125 L 10.183594 25.027344 Z M 5.269531 20.113281 "/>
</clipPath>
<clipPath id="clip-4">
<path clip-rule="nonzero" d="M 0 0 L 21.75 0 L 21.75 20.125 L 0 20.125 Z M 0 0 "/>
</clipPath>
<clipPath id="clip-5">
<path clip-rule="nonzero" d="M -0.796875 14.046875 L 15.65625 -2.40625 L 21.71875 3.65625 L 5.265625 20.109375 Z M -0.796875 14.046875 "/>
</clipPath>
<clipPath id="clip-6">
<path clip-rule="nonzero" d="M 10.125 8.5 L 31.5 8.5 L 31.5 29.921875 L 10.125 29.921875 Z M 10.125 8.5 "/>
</clipPath>
<clipPath id="clip-7">
<path clip-rule="nonzero" d="M 10.171875 25.015625 L 26.625 8.5625 L 31.496094 13.433594 L 15.046875 29.886719 Z M 10.171875 25.015625 "/>
</clipPath>
<clipPath id="clip-8">
<path clip-rule="nonzero" d="M 14.625 23.75 L 17.625 23.75 L 17.625 26.875 L 14.625 26.875 Z M 14.625 23.75 "/>
</clipPath>
<clipPath id="clip-9">
<path clip-rule="nonzero" d="M 14.683594 23.824219 L 17.582031 26.769531 L 17.582031 23.824219 Z M 14.683594 23.824219 "/>
</clipPath>
</defs>
<g clip-path="url(#clip-0)">
<g clip-path="url(#clip-1)">
<path fill-rule="nonzero" fill="rgb(96.862745%, 81.960785%, 52.549022%)" fill-opacity="1" d="M 13.085938 9.84375 L 18.753906 9.84375 L 18.753906 31.15625 L 13.085938 31.15625 Z M 13.085938 9.84375 "/>
</g>
</g>
<g clip-path="url(#clip-2)">
<g clip-path="url(#clip-3)">
<path fill-rule="nonzero" fill="rgb(100%, 80.392158%, 23.529412%)" fill-opacity="1" d="M 4.113281 2.503906 L 27.78125 2.503906 L 27.78125 26.171875 L 4.113281 26.171875 Z M 4.113281 2.503906 "/>
</g>
</g>
<g clip-path="url(#clip-4)">
<g clip-path="url(#clip-5)">
<path fill-rule="nonzero" fill="rgb(95.294118%, 50.196081%, 48.235294%)" fill-opacity="1" d="M -1.96875 -3.578125 L 22.890625 -3.578125 L 22.890625 21.28125 L -1.96875 21.28125 Z M -1.96875 -3.578125 "/>
</g>
</g>
<g clip-path="url(#clip-6)">
<g clip-path="url(#clip-7)">
<path fill-rule="nonzero" fill="rgb(20.784314%, 81.568629%, 72.941178%)" fill-opacity="1" d="M 9 7.390625 L 32.667969 7.390625 L 32.667969 31.058594 L 9 31.058594 Z M 9 7.390625 "/>
</g>
</g>
<g clip-path="url(#clip-8)">
<g clip-path="url(#clip-9)">
<path fill-rule="nonzero" fill="rgb(84.705883%, 68.235296%, 39.215687%)" fill-opacity="1" d="M 13.535156 22.644531 L 18.761719 22.644531 L 18.761719 27.894531 L 13.535156 27.894531 Z M 13.535156 22.644531 "/>
</g>
</g>
</svg>

<svg role="img" viewBox="0 0 32 32" xmlns="http://www.w3.org/2000/svg"><defs><clipPath id="crossplane_svg__a"><path d="M14.25 11h3.375v19H14.25Zm0 0"/></clipPath><clipPath id="crossplane_svg__b"><path d="M15.918 11.016c-.918 0-1.66.742-1.66 1.66v15.648a1.661 1.661 0 0 0 3.324 0V12.676c0-.918-.746-1.66-1.664-1.66"/></clipPath><clipPath id="crossplane_svg__c"><path d="M5.25 3.625h21.36V25H5.25Zm0 0"/></clipPath><clipPath id="crossplane_svg__d"><path d="M5.27 20.113 21.719 3.66l4.918 4.918-16.453 16.45Zm0 0"/></clipPath><clipPath id="crossplane_svg__e"><path d="M0 0h21.75v20.125H0Zm0 0"/></clipPath><clipPath id="crossplane_svg__f"><path d="M-.797 14.047 15.656-2.406l6.063 6.062L5.266 20.11Zm0 0"/></clipPath><clipPath id="crossplane_svg__g"><path d="M10.125 8.5H31.5v21.422H10.125Zm0 0"/></clipPath><clipPath id="crossplane_svg__h"><path d="M10.172 25.016 26.625 8.563l4.871 4.87-16.45 16.454Zm0 0"/></clipPath><clipPath id="crossplane_svg__i"><path d="M14.625 23.75h3v3.125h-3Zm0 0"/></clipPath><clipPath id="crossplane_svg__j"><path d="m14.684 23.824 2.898 2.946v-2.946Zm0 0"/></clipPath></defs><g clip-path="url(#crossplane_svg__a)"><g clip-path="url(#crossplane_svg__b)"><path d="M13.086 9.844h5.668v21.312h-5.668Zm0 0" fill="rgb(96.862745%, 81.960785%, 52.549022%)"/></g></g><g clip-path="url(#crossplane_svg__c)"><g clip-path="url(#crossplane_svg__d)"><path d="M4.113 2.504h23.668v23.668H4.113Zm0 0" fill="rgb(100%, 80.392158%, 23.529412%)"/></g></g><g clip-path="url(#crossplane_svg__e)"><g clip-path="url(#crossplane_svg__f)"><path d="M-1.969-3.578h24.86v24.86H-1.97Zm0 0" fill="rgb(95.294118%, 50.196081%, 48.235294%)"/></g></g><g clip-path="url(#crossplane_svg__g)"><g clip-path="url(#crossplane_svg__h)"><path d="M9 7.39h23.668v23.67H9Zm0 0" fill="rgb(20.784314%, 81.568629%, 72.941178%)"/></g></g><g clip-path="url(#crossplane_svg__i)"><g clip-path="url(#crossplane_svg__j)"><path d="M13.535 22.645h5.227v5.25h-5.227Zm0 0" fill="rgb(84.705883%, 68.235296%, 39.215687%)"/></g></g></svg>
